!!!COM: Palestrina, Giovanni Perluigi da
!!!OPR: Quem dicunt homines
!!!OTL: Agnus I
**kern	**kern	**kern	**kern
*Ibass	*Itenor	*Icalto	*Icant
!Bassus	!Tenor	!Altus	!Cantus
*clefF4	*clefGv2	*clefG2	*clefG2
*k[]	*k[]	*k[]	*k[]
*C:ion	*C:ion	*C:ion	*C:ion
*M4/2	*M4/2	*M4/2	*M4/2
=1	=1	=1	=1
0r	0r	1r	1.g
.	.	[1c	.
.	.	.	2g
=2	=2	=2	=2
0r	1r	2c]	2a
.	.	2d	2b
.	[1c	2.e	1g
.	.	4d	.
=3	=3	=3	=3
0r	2c]	2c	2r
.	2d	2B	2g
.	2.e	4A	2.cc
.	.	4B	.
.	.	4c	.
.	4d	4d	4b
=4	=4	=4	=4
0r	2c	4e	2a
.	.	4f#	.
.	2B	1g	2g
.	1A	.	1cc
.	.	2f#	.
=5	=5	=5	=5
1r	2G	1g	1b
.	2G	.	.
[1C	2.c	[1e	2r
.	.	.	2g
.	4B	.	.
=6	=6	=6	=6
2C]	2A	2e]	2.cc
2C	2G	2e	.
.	.	.	4b
2D	2r	2f	2a
2E	2G	4e	2g
.	.	4d	.
=7	=7	=7	=7
1C	2.c	0e	2r
.	.	.	2g
.	4B	.	.
2r	2A	.	2.cc
2C	2G	.	.
.	.	.	4b
=8	=8	=8	=8
2.F	2A	1c	2.a
.	4F	.	.
4E	4G	.	4g
2D	4A	2d	2f
.	4B	.	.
2C	[2c	2G	[2e
=9	=9	=9	=9
1F	2c]	1A	2e]
.	4B	.	2d
.	4A	.	.
1E	2B	2G	2.e
.	[2e	[2g	.
.	.	.	4f
=10	=10	=10	=10
1C	4e]	4g]	0g
.	4d	4f	.
.	1c	2e	.
2G	.	2.d	.
2G	2B	.	.
.	.	4e	.
=11	=11	=11	=11
2A	2.c	2f	1r
2.c	.	2.e	.
.	4B	.	.
.	1A	.	2r
4B	.	4d	.
4c	.	4e	2c
4A	.	4c	.
=12	=12	=12	=12
2B	0r	2d	2g
2c	.	1g	2g
1A	.	.	2a
.	.	2f	[2cc
=13	=13	=13	=13
1G	1C	1e	2cc]
.	.	.	4b
.	.	.	4a
1r	2G	1d	4b
.	.	.	4a
.	2G	.	4g
.	.	.	4f
=14	=14	=14	=14
0r	2A	2.c	2.e
.	2.c	.	.
.	.	4d	4f
.	.	1e	2g
.	4B	.	.
.	4c	.	[2a
.	4A	.	.
=15	=15	=15	=15
2r	2B	2d	4a]
.	.	.	4g
2C	2c	2e	1g
2D	1A	2.d	.
2D	.	.	2f#
.	.	4c	.
=16	=16	=16	=16
2E	1G	0B	4g
.	.	.	4a
2.G	.	.	4b
.	.	.	4cc
.	2r	.	2.dd
4F	.	.	.
4G	2G	.	.
4E	.	.	8cc
.	.	.	8b
=17	=17	=17	=17
2F	2d	1r	2a
2G	2d	.	2b
1E	2e	2r	1g
.	[2c	2G	.
=18	=18	=18	=18
1D	2c]	2d	0r
.	2B	2d	.
4C	2c	2e	.
4D	.	.	.
4E	4B	[2g	.
4F	4A	.	.
=19	=19	=19	=19
4G	4B	4g]	0r
4A	4c	4f	.
4B	4d	4g	.
4c	4e	4e	.
2A	2c	2f	.
2B	[2d	2g	.
=20	=20	=20	=20
2c	4d]	1.e	2r
.	4c	.	.
2A	1c	.	2c
1G	.	.	2g
.	2B	2d	2g
=21	=21	=21	=21
2.F	2c	1f	2a
.	2A	.	2.cc
4G	.	.	.
1A	1c	2.e	.
.	.	.	4b
.	.	.	4cc
.	.	4f#	4a
=22	=22	=22	=22
2G	2d	1.g	2b
2C	2e	.	2cc
1D	1d	.	2b
.	.	2f	[2a
=23	=23	=23	=23
1E	2B	2e	4a]
.	.	.	4g
.	2G	2c	1g
1D	2A	1d	.
.	[2d	.	2f#
=24	=24	=24	=24
2r	2d]	2.G	1g
1G	2d	.	.
.	.	4A	.
.	2.d	2.B	2r
2G	.	.	[2g
.	4c	4c	.
=25	=25	=25	=25
2.G	4B	1d	2g]
.	4A	.	.
.	2B	.	2g
4F	.	.	.
2E	2c	1r	2g
2F	[2d	.	2f
=26	=26	=26	=26
2G	2d]	1r	2.e
2A	1c	.	.
.	.	.	8d
.	.	.	8c
1G	.	2r	1d
.	2B	[2g	.
=27	=27	=27	=27
1C	2.c	2g]	4e
.	.	.	4f
.	.	2g	4g
.	8B	.	4a
.	8A	.	.
1r	2G	2g	4b
.	.	.	4cc
.	2D	2f	[2dd
=28	=28	=28	=28
0r	1A	2.e	4dd]
.	.	.	4cc
.	.	.	1cc
.	.	8d	.
.	.	8c	.
.	1G	1d	.
.	.	.	2b
=29	=29	=29	=29
2r	2c	1c	1cc
1c	1e	.	.
.	.	1G	2r
2B	2d	.	[2g
=30	=30	=30	=30
1c	1e	2r	2g]
.	.	1c	2g
1G	2d	.	2.g
.	[2e	2B	.
.	.	.	4f
=31	=31	=31	=31
1A	4e]	2.c	2e
.	4d	.	.
.	2c	.	2f
.	.	4d	.
2G	2B	2e	2g
2F	[2c	2f	2a
=32	=32	=32	=32
1G	2c]	1d	1g
.	2B	.	.
2r	1c	2e	2r
[2c	.	[2g	[2ee
=33	=33	=33	=33
2c]	1G	2g]	2ee]
2B	.	2g	2dd
2c	2e	2.g	2cc
2G	2d	.	2b
.	.	4f	.
=34	=34	=34	=34
1A	1.c	2e	2.cc
.	.	2f	.
.	.	.	4dd
2E	.	2g	2ee
2F	2A	2a	[2dd
=35	=35	=35	=35
0G	2B	0g	2dd]
.	2c	.	1cc
.	1d	.	.
.	.	.	2b
=36	=36	=36	=36
0C	0c	0e	0cc
==	==	==	==
*-	*-	*-	*-
!!!CDT: 1525/^1526/-1594/2/2
!!!OCY: Italia
!!!AGN: Mass (Parody)
!!!AST: renaissance, vocal
!!!ASW: Motet 1532 (Richafort)
!!!PWK: Masses, Book 8
!!!RNB: Cadence finals: G
!!!YOR: Le Opere Complete, v. 24, p. 1
!!!YOO: Rome, Italy: Fratelli Scalera
!!!END: 1992//
!!!EED: John Miller
!!!YEC: Copyright 2000, John Miller
!!!YEN: United States of America
!!!YEM: Rights to all derivative electronic formats reserved.
!!!YEM: Refer to licensing agreement for further details.
!!!YEM: This file must be accompanied by the licensing agreement.
!!!YEM: A copy of the licensing agreement may be found at http://www.music-cog.ohio-state.edu/HumdrumDatabases/Palestrina/license.txt
!!!EMD: converted to Humdrum by Bret Aarden
